X:125
T:The Rose Tree
Z:Jack Campin  *  May 2000  *  http://www.campin.me.uk/
M:2/4
L:1/8
Q:180
C:Carr (1796)
K:D
  f/e/ | dB AF | A>B AB | d2 f/e/d/e/ | fe ef/e/ | dB AF | A>B AB | d2 f
/e
/d/e/ | fd d :|: d/ | fe fg | a2 gf | eb ba | be ef/e/ | dB AF | A>B AB
| d2 f/e/d/e/ |1 fd d :|2 fd dz ||

